!!!!SEGMENT: pl-sa--552-a-ix-32--003_anonim--polonez.krn
!!!cenid: 18xx:514
!!!COM: Anonim
!!!COM-rismid: pe30004985
!!!CDT:
!!!CNT:
!!!OTL: Polonez
!!!PDT:
!!!AGN: Secular; Polonaise
!!!SMS-siglum: PL-SA
!!!SMS-shelfmark: 552/A IX 32
!!!SMS-shelfwork: 003 W
!!!SMS-variant:
!!!SMS-altvar:
!!!NIFC-rismid: 1001069491
!!!system-decoration: {(s1,s2)}
!!!AIN: 1 empty 1 piano
!!!key:
**kern	**kern
*part2	*part1
*staff2	*staff1
*Iempty	*Ipiano
*	*I"Piano
*clefF4	*clefG2
*k[]	*k[]
*C:	*C:
*M3/4	*M3/4
*>[A,A,B,B,A,A,B,B,C,C,D,D,C,C,D,D]	*>[A,A,B,B,A,A,B,B,C,C,D,D,C,C,D,D]
=1	=1
*>A	*>A
!LO:CL:ed	!
*clefG2	*
*tremolo	*
!LO:TX:a:t=P:problem=w źródle ten klucz jest niewidoczny	!
!LO:TX:a:t=P:problem=w źródle takty 1-4 w kluczu G2	!
!	!LO:TX:a:Bi:t=Polon&colon;:rj
8e 8c/L	4.ee 4.cc\
8g/	.
8e 8c/	.
8g/	8ggL 8ee\
8e 8c/	8ee 8cc\
8g/J	8ggJ 8ee\
=2	=2
*rep	*
8e 8c/L	16ee\LL
.	16gg\
8g/	16ff#X\
.	16gg\JJ
8e 8c/	16aa\LL
.	16gg\
8g/	16ff#\
.	16gg\JJ
8e 8c/	8eeL 8cc\
8g/J	8ggJ 8ee\
*Xrep	*
=3	=3
8d 8B/L	16gg\LL
.	16ff#X\JJ
8g/	4.ffn\
8d 8B/	.
8g/	.
8d 8B/	8ddL 8b\
8g/J	16eeL 16cc\
.	16ffJJ 16dd\
*Xtremolo	*
=4	=4
8gL 8e 8c/	16ee\LL
.	16gg\
8g/J	16ccc\
.	16bb\JJ
8gL 8e/	16aa\LL
.	16gg\
8f/J	16ff\
.	16ee\JJ
8g/L	8eeL 8cc\
8G/J	8ddJ 8b\
!LO:CL:ed	!
*clefF4	*
!LO:TX:a:t=P:problem=w źródle ten klucz jest niewidoczny	!
=5	=5
16C\LL	16cc\LL
16G\	16dd\
16E\	16ee\
16G\JJ	16ff\JJ
*rep	*
16C\LL	8gg\L
16G\	.
16E\	16ff#X\L
16G\JJ	16gg\JJ
*Xrep	*
*rep	*
16C\LL	16aa\LL
16G\	16gg\
16E\	16ff#\
16G\JJ	16gg\JJ
*Xrep	*
=6	=6
*rep	*
16C\LL	16ccc\LL
16G\	16gg\JJ
16E\	4gg\
16G\JJ	.
*Xrep	*
*rep	*
16C\LL	.
16G\	.
16E\	16aa\LL
16G\JJ	16gg\JJ
*Xrep	*
*rep	*
16C\LL	16ff\LL
16G\	16ee\
16E\	16dd\
16G\JJ	16cc\JJ
*Xrep	*
=7	=7
4F\	16dd\LL
.	16cc#X\
.	16ee\
.	16dd\JJ
4D\	16ff\LL
.	16ff\
.	16gg#X\
.	16aa\JJ
8F\L	16ggn\LL
.	16ff\
8F#X\J	16ee\
.	16dd\JJ
=8	=8
8EL 8C\	16gg\LL
.	16ee\J
8G\J	8.cc\J
!LO:TX:a:t=P:problem=w źródle belka przechodząca na następny system	!
8FL 8D\	.
!!LO:LB:g=original
.	16ee\LL
8G\J	16dd\
.	16b\JJ
4E 4C\	4cc\
=9:|!|:	=9:|!|:
*>B	*>B
4G\	4.dd 4.b\
4GG/	.
.	8aaL 8ff\
4G\	8gg 8ee\
.	8ffJ 8dd\
=10	=10
8EL 8C\	16ee\LL
.	16gg\J
8G\J	8gg\J
*rep	*
8EL 8C\	4.ccc\
8G\J	.
*Xrep	*
*rep	*
8EL 8C\	.
8G\J	8ee\
*Xrep	*
=11	=11
4F\	8aaL 8ff\
.	8gg#X 8ee\
4F\	8aa 8ff\
.	8ggn 8ee\
4F#X\	8ff 8dd\
.	8eeJ 8cc\
=12	=12
4G\	16dd\LL
.	16cc\
.	16b\
.	16a\JJ
4GG/	8g/L
.	16f#X/L
.	16g/JJ
4G\	16a/LL
.	16g/
.	16f#/
!	!LO:TX:b:Bi:t=Polo&colon;Capo
.	16g/JJ
=13||	=13||
*>C	*>C
*clefG2	*clefG2
*k[]	*k[]
*M3/4	*M3/4
!	!LO:TX:a:t=P:problem=w źródle po lewej stronie systemu dodatkowa klamra
!	!LO:TX:a:t=P:problem=W źródle brakuje informacji o początku części Trio
.	8qddd/
8eL 8c/	8ccc\L
.	8qddd/
8g/J	8ccc\J
*rep	*
8eL 8c/	4gg\
8g/J	.
*Xrep	*
*rep	*
8eL 8c/	4r
8g/J	.
*Xrep	*
=14	=14
*	*clefF4
.	8qA/
*rep	*
8eL 8c/	16G\LL
.	16F#X\
8g/J	16G\
.	16E\JJ
*Xrep	*
*rep	*
8eL 8c/	4C/
8g/J	.
*Xrep	*
*rep	*
8eL 8c/	4r
8g/J	.
*Xrep	*
!!LO:LB:g=original
=15	=15
!LO:CL:ed	!LO:CL:ed
*clefF4	*clefG2
!LO:TX:a:t=P:problem=w źródle ten klucz jest niewidoczny	!LO:TX:a:t=P:problem=w źródle ten klucz jest niewidoczny
4G\	8.ddL 8.b\
.	16eeJk 16cc\
4GG/	8ffL 8dd\
.	8aaJ 8ff\
4G\	8ggL 8ee\
.	8ffJ 8dd\
=16	=16
8E\L	16ee\LL
.	16gg\JJ
8G\J	4ccc\
*rep	*
8E\L	.
8G\J	16gg\LL
.	16ee\JJ
*Xrep	*
*rep	*
8E\L	16aa\LL
.	16gg\
8G\J	16ff\
.	16ee\JJ
*Xrep	*
=17	=17
4G\	8.ddL 8.b\
.	16eeJk 16cc\
4GG/	8ffL 8dd\
.	8aa 8ff\
4G\	8gg 8ee\
.	8ffJ 8dd\
=18	=18
8EL 8C\	8.eeL 8.cc\
8G\	.
.	16gg\Jk
8F 8D\	16ff\LL
.	16ee\
8G\J	16ff\
.	16dd\JJ
4E 4C\	4cc\
=19:|!|:	=19:|!|:
*>D	*>D
16BB\LL	8.dd\L
16G\	.
16D\	.
16G\JJ	16cc\Jk
*rep	*
16BB\LL	16b\LL
16G\	16a\
16D\	16b\
16G\JJ	16cc\JJ
*Xrep	*
*rep	*
16BB\LL	16dd\LL
16G\	16ee\
16D\	16ff\
16G\JJ	16dd\JJ
*Xrep	*
=20	=20
16C\LL	16ee\LL
16G\	16cc\
16E\	16ee\
16G\JJ	16gg\JJ
*rep	*
16C\LL	16ccc\LL
16G\	16bb\
16E\	16aa\
16G\JJ	16gg\JJ
*Xrep	*
*rep	*
16C\LL	16aa\LL
16G\	16gg\
16E\	16ff\
16G\JJ	16ee\JJ
*Xrep	*
=21	=21
16BB\LL	8.dd\L
16G\	.
16D\	.
16G\JJ	16cc\Jk
*rep	*
16BB\LL	16b\LL
16G\	16a\
16D\	16b\
16G\JJ	16cc\JJ
*Xrep	*
*rep	*
16BB\LL	16dd\LL
16G\	16ee\
16D\	16ff\
16G\JJ	16dd\JJ
*Xrep	*
!!LO:LB:g=original
=22	=22
8C\L	16eeLL 16cc\
.	16gg\
8E\J	16ccc\
.	16bb\JJ
8F\L	16aa\LL
.	16gg\
8F#X\J	16ff\
.	16ee\JJ
!LO:TX:t=P:problem=mixed beam	!
8G\L	8eeL 8cc\
8GG/J	8ddJ 8b\
!LO:TX:a:t=LO:TX:a:t=P:problem=w źródle brak kreski końcowej	!LO:TX:a:t=LO:TX:a:t=P:problem=w źródle brak kreski końcowej
!	!LO:TX:b:Bi:t=Trio Da Capo
==	==
*-	*-
!!title: @{OTL};
!!!RDF**kern: > = above
!!!RDF**kern: < = below
!!!EED: Wojciech Jakubiak-Danek
!!!EST: 2020-12-11
!!!URL-scan: http://bc.bdsandomierz.pl/dlibra/publication/1308/edition/1276/content
!!!ONB-nifc: Str. 2, s. 2-5
!!!ENC: Marta Chmielewska
!!!END: 2020-06-17
